assets/data/legends/Sound/53 Bottled water consumption_mask-01-Simplified.svg

<?xml version="1.0" encoding="UTF-8" standalone="no"?>
<!-- Generator: Adobe Illustrator 23.0.1, SVG Export Plug-In . SVG Version: 6.00 Build 0)  -->

<svg
   version="1.1"
   id="AR_x5F_layer"
   x="0px"
   y="0px"
   width="9451.5px"
   height="623.5px"
   viewBox="0 0 9451.5 623.5"
   style="enable-background:new 0 0 9451.5 623.5;"
   xml:space="preserve"
   sodipodi:docname="53 Bottled water consumption_mask-01-Simplified.svg"
   inkscape:version="1.1.1 (c3084ef, 2021-09-22)"
   xmlns:inkscape="http://www.inkscape.org/namespaces/inkscape"
   xmlns:sodipodi="http://sodipodi.sourceforge.net/DTD/sodipodi-0.dtd"
   xmlns="http://www.w3.org/2000/svg"
   xmlns:svg="http://www.w3.org/2000/svg"><defs
   id="defs11" /><sodipodi:namedview
   id="namedview9"
   pagecolor="#505050"
   bordercolor="#eeeeee"
   borderopacity="1"
   inkscape:pageshadow="0"
   inkscape:pageopacity="0"
   inkscape:pagecheckerboard="0"
   showgrid="false"
   inkscape:zoom="0.46801899"
   inkscape:cx="6458.0713"
   inkscape:cy="425.19643"
   inkscape:window-width="1440"
   inkscape:window-height="762"
   inkscape:window-x="0"
   inkscape:window-y="25"
   inkscape:window-maximized="1"
   inkscape:current-layer="AR_x5F_layer" />
<g
   id="g57"><path
     id="path4"
     class="st0"
     d="m 7159.7871,125.01953 c -28.9668,1.63346 -57.9336,3.26693 -86.9004,4.90039 -1.9961,0.004 -3.6296,1.4227 -5.2558,2.43946 -28.8307,18.80004 -57.6615,37.60033 -86.4922,56.40039 -29.2128,2.1455 -58.4301,4.26384 -87.6407,6.42578 -27.87,2.87118 -55.7444,5.71439 -83.6113,8.60351 -2.0974,0.57633 -4.0296,1.62391 -6.0547,2.40625 -28.9825,12.21758 -57.9529,24.4661 -86.9433,36.66407 l -88.586,33.33203 c -25.3674,-1.68818 -50.7334,-3.40738 -76.1015,-5.07618 -32.2515,-0.62343 -64.5026,-1.28409 -96.7539,-1.89257 -1.5944,0.13041 -3.1425,0.62507 -4.7207,0.89062 -27.9,5.74137 -55.8016,11.50789 -83.7012,17.23438 -16.3124,5.41811 -32.6137,10.88785 -48.9219,16.32617 -12.7115,-5.65457 -25.4089,-11.3437 -38.1289,-16.97656 -1.9728,-0.74801 -4.1189,-0.47994 -6.1816,-0.66407 -50.0799,-2.2135 -100.1593,-4.43828 -150.2364,-6.71484 -6.8339,-0.29109 -13.6672,-0.65083 -20.5019,-0.89844 -3.1833,0.0661 -5.9966,2.9196 -5.9551,6.11328 -0.1144,2.98315 2.2323,5.80248 5.1953,6.20703 0.2015,0.0141 0.404,0.0161 0.6055,0.0293 V 623.5 h 1061.4004 l 71.3617,-3.12856 2.5602,-98.71003 -36.7001,3.77256 c 0,0 -2.0763,-388.03554 -2.1699,-390.08256 0.01,-3.14073 -35.6865,-10.1736 -38.8,-10.32211 -0.254,-0.0172 -0.5109,-0.0149 -0.7656,-0.01 z"
     sodipodi:nodetypes="cccccccccccccccccccccccccccccc" /></g><style
   type="text/css"
   id="style2">
	.st0{opacity:0.75;enable-background:new    ;}
	.st1{opacity:0.75;}
</style>


</svg>

<?xml version="1.0" encoding="UTF-8" standalone="no"?>
<!-- Generator: Adobe Illustrator 23.0.1, SVG Export Plug-In . SVG Version: 6.00 Build 0)  -->

<svg
   version="1.1"
   id="AR_x5F_layer"
   x="0px"
   y="0px"
   width="9451.5px"
   height="623.5px"
   viewBox="0 0 9451.5 623.5"
   style="enable-background:new 0 0 9451.5 623.5;"
   xml:space="preserve"
   sodipodi:docname="53 Bottled water consumption_mask-01-Simplified.svg"
   inkscape:version="1.1.1 (3bf5ae0d25, 2021-09-20)"
   xmlns:inkscape="http://www.inkscape.org/namespaces/inkscape"
   xmlns:sodipodi="http://sodipodi.sourceforge.net/DTD/sodipodi-0.dtd"
   xmlns="http://www.w3.org/2000/svg"
   xmlns:svg="http://www.w3.org/2000/svg"><defs
   id="defs11" /><sodipodi:namedview
   id="namedview9"
   pagecolor="#505050"
   bordercolor="#eeeeee"
   borderopacity="1"
   inkscape:pageshadow="0"
   inkscape:pageopacity="0"
   inkscape:pagecheckerboard="0"
   showgrid="false"
   inkscape:zoom="0.466381"
   inkscape:cx="6418.572"
   inkscape:cy="361.29259"
   inkscape:window-width="1366"
   inkscape:window-height="705"
   inkscape:window-x="-8"
   inkscape:window-y="-8"
   inkscape:window-maximized="1"
   inkscape:current-layer="AR_x5F_layer" />
<style
   type="text/css"
   id="style2">
	.st0{opacity:0.75;enable-background:new    ;}
	.st1{opacity:0.75;}
</style>
<g
   id="g57"><path
     id="path4"
     class="st0"
     d="M 7159.7871 125.01953 C 7130.8203 126.65299 7101.8535 128.28646 7072.8867 129.91992 C 7070.8906 129.92392 7069.2571 131.34262 7067.6309 132.35938 C 7038.8002 151.15942 7009.9694 169.95971 6981.1387 188.75977 C 6951.9259 190.90527 6922.7086 193.02361 6893.498 195.18555 C 6865.628 198.05673 6837.7536 200.89994 6809.8867 203.78906 C 6807.7893 204.36539 6805.8571 205.41297 6803.832 206.19531 C 6774.8495 218.41289 6745.8791 230.66141 6716.8887 242.85938 L 6628.3027 276.19141 C 6602.9353 274.50323 6577.5693 272.78403 6552.2012 271.11523 C 6519.9497 270.4918 6487.6986 269.83114 6455.4473 269.22266 C 6453.8529 269.35307 6452.3048 269.84773 6450.7266 270.11328 C 6422.8266 275.85465 6394.925 281.62117 6367.0254 287.34766 C 6350.713 292.76577 6334.4117 298.23551 6318.1035 303.67383 C 6305.392 298.01926 6292.6946 292.33013 6279.9746 286.69727 C 6278.0018 285.94926 6275.8557 286.21733 6273.793 286.0332 C 6223.7131 283.8197 6173.6337 281.59492 6123.5566 279.31836 C 6116.7227 279.02727 6109.8894 278.66753 6103.0547 278.41992 C 6099.8714 278.48602 6097.0581 281.33952 6097.0996 284.5332 C 6096.9852 287.51635 6099.3319 290.33568 6102.2949 290.74023 C 6102.4964 290.75437 6102.6989 290.75631 6102.9004 290.76953 L 6102.9004 623.5 L 7164.3008 623.5 L 7160.3457 137.51172 C 7160.4948 137.50326 7160.6439 137.49479 7160.793 137.48633 C 7163.9731 137.26447 7166.5448 134.2365 7166.4004 131.07812 C 7166.4104 127.93739 7163.6662 125.17781 7160.5527 125.0293 C 7160.2987 125.0121 7160.0418 125.01443 7159.7871 125.01953 z " /></g>

</svg>
